icons/category/icon_category-medicine_xxl_black.svg

<svg width="48" height="48" viewBox="0 0 48 48" xmlns="http://www.w3.org/2000/svg"><g fill="none" fill-rule="evenodd"><path d="M0 0h48v48H0z"/><path d="M15 31.981v.519C15 39.393 20.607 45 27.5 45S40 39.393 40 32.5v-5.525a5.506 5.506 0 0 0 5-5.475c0-3.033-2.468-5.5-5.5-5.5a5.506 5.506 0 0 0-5.5 5.5 5.506 5.506 0 0 0 5 5.475V32.5C39 38.841 33.841 44 27.5 44S16 38.841 16 32.5v-.53c6.671-.317 12-5.529 12-11.91V5h-4v1h.021c.105 1.12 1.037 2 2.184 2H27v12.06c0 6.021-5.201 10.922-11.603 10.94C9.109 30.982 4 26.082 4 20.06V8h.795c1.148 0 2.079-.88 2.184-2H7V5H3v15.06c0 6.444 5.345 11.7 12 11.921zM35 21.5c0-2.481 2.019-4.5 4.5-4.5s4.5 2.019 4.5 4.5-2.019 4.5-4.5 4.5a4.505 4.505 0 0 1-4.5-4.5z" fill="#0B1F35"/><path fill="#0B1F35" opacity=".3" d="M3.5 19h24v3h-24z"/><circle fill="#0B1F35" opacity=".3" cx="39.5" cy="21.5" r="2"/></g></svg>

<?xml version="1.0" encoding="UTF-8"?>
<svg width="48px" height="48px" viewBox="0 0 48 48" version="1.1" xmlns="http://www.w3.org/2000/svg" xmlns:xlink="http://www.w3.org/1999/xlink">
    <!-- Generator: Sketch 48.2 (47327) - http://www.bohemiancoding.com/sketch -->
    <title>icon_category-medicine_xxl_black</title>
    <desc>Created with Sketch.</desc>
    <defs></defs>
    <g id="mobile" stroke="none" stroke-width="1" fill="none" fill-rule="evenodd" transform="translate(-1387.000000, -354.000000)">
        <g id="Headings" transform="translate(64.000000, 77.000000)">
            <g id="icon_category_farmacy__xxl__white" transform="translate(1323.000000, 277.000000)">
                <g id="ungroup">
                    <rect id="Rectangle-path" x="0" y="0" width="48" height="48"></rect>
                    <g id="a1" opacity="0.4"></g>
                    <path d="M15,31.981 L15,32.5 C15,39.393 20.607,45 27.5,45 C34.393,45 40,39.393 40,32.5 L40,26.975 C42.799,26.721 45,24.364 45,21.5 C45,18.467 42.532,16 39.5,16 C36.468,16 34,18.467 34,21.5 C34,24.364 36.201,26.721 39,26.975 L39,32.5 C39,38.841 33.841,44 27.5,44 C21.159,44 16,38.841 16,32.5 L16,31.97 C22.671,31.653 28,26.441 28,20.06 L28,5 L24,5 L24,5.5 L24,5.795 L24,6 L24.021,6 C24.126,7.12 25.058,8 26.205,8 L27,8 L27,20.06 C27,26.081 21.799,30.982 15.397,31 C9.109,30.982 4,26.082 4,20.06 L4,8 L4.795,8 C5.943,8 6.874,7.12 6.979,6 L7,6 L7,5.795 L7,5.5 L7,5 L3,5 L3,20.06 C3,26.504 8.345,31.76 15,31.981 L15,31.981 Z M35,21.5 C35,19.019 37.019,17 39.5,17 C41.981,17 44,19.019 44,21.5 C44,23.981 41.981,26 39.5,26 C37.019,26 35,23.981 35,21.5 L35,21.5 Z" id="Shape" fill="#0B1F35"></path>
                    <rect id="Rectangle-path" fill="#0B1F35" opacity="0.3" x="3.5" y="19" width="24" height="3"></rect>
                    <circle id="Oval" fill="#0B1F35" opacity="0.3" cx="39.5" cy="21.5" r="2"></circle>
                </g>
            </g>
        </g>
    </g>
</svg>
